X:1
T:Restoration, 87.87
T:Restoration, 87.87
T:Southern Harmony, William Walker, 1835
T:Public Domain Courtesy of the Cyber Hymnal™
C:Southern Harmony, William Walker, 1835
Z:Public Domain
Z:Courtesy of the Cyber Hymnal™
%%score ( 1 2 ) ( 3 4 )
L:1/8
Q:1/4=115
M:4/4
K:Bb
V:1 treble 
V:2 treble 
V:3 bass 
V:4 bass 
V:1
 G2 B2 G2 (FG) | B2 B2 (GF) D2 | [DF]2 [DF]2 [EG]2 ([DF][EG]) | [FB]2 [Fc]2 [Fd]4 | %4
 [Fd]2 [Bf]2 (dc) [GB]2 | [Fc]2 [Fd]2 (BG) [DF]2 | [DG]3 [DB] ([EG][DF]) ([B,D][A,C]) | %7
 [B,D]2 [C^F]2 [DG]4 |] %8
V:2
 G2 B2 G2 x2 | B2 B2 D2 x2 | x8 | x8 | x4 A2 x2 | x4 D2 x2 | x8 | x8 |] %8
V:3
 G,2 B,2 G,2 x2 | B,2 B,2 D,2 x2 | [B,,B,]2 [B,,B,]2 [B,,B,]2 [B,,B,]2 | [D,B,]2 [F,A,]2 B,4 | %4
 B,2 [B,D]2 [^F,D]2 [G,D]2 | [A,C]2 B,2 B,2 B,2 | [G,B,]3 [G,B,] B,2 (B,G,) | %7
 [D,G,]2 [D,G,]2 [G,B,]4 |] %8
V:4
 G,2 B,2 G,2 (F,G,) | B,2 B,2 (G,F,) D,2 | x8 | x4 B,4 | B,2 x6 | x2 B,2 (G,D,) B,2 | %6
 x4 (E,F,) G,2 | x8 |] %8

